app/assets/images/icons/active/sight.svg

<?xml version="1.0" encoding="UTF-8" standalone="no"?>
<svg width="32px" height="232px" viewBox="0 0 32 232" version="1.1" xmlns="http://www.w3.org/2000/svg" xmlns:xlink="http://www.w3.org/1999/xlink" xmlns:sketch="http://www.bohemiancoding.com/sketch/ns">
    <title>sight</title>
    <description>Created with Sketch (http://www.bohemiancoding.com/sketch)</description>
    <defs></defs>
    <g id="Points-of-interest" stroke="none" stroke-width="1" fill="none" fill-rule="evenodd" sketch:type="MSPage">
        <path d="M16,174.748498 C14.7085271,174.748498 13.6686399,175.758068 13.6686399,177 C13.6686399,178.242933 14.7085271,179.250501 16,179.250501 C17.2894996,179.250501 18.3353066,178.242933 18.3353066,177 C18.3353066,175.758068 17.2894996,174.748498 16,174.748498 M16,168 C8.26892178,168 2,177 2,177 C2,177 8.26892178,186 16,186 C23.729105,186 30,177 30,177 C30,177 23.729105,168 16,168 M16,182.627754 C12.779704,182.627754 10.16716,180.105831 10.16716,177 C10.16716,173.894169 12.779704,171.373247 16,171.373247 C19.2222692,171.373247 21.83284,173.894169 21.83284,177 C21.83284,180.105831 19.2222692,182.627754 16,182.627754" id="sight--red" fill="#FA5E5B" sketch:type="MSShapeGroup"></path>
        <path d="M16,134.748498 C14.7085271,134.748498 13.6686399,135.758068 13.6686399,137 C13.6686399,138.242933 14.7085271,139.250501 16,139.250501 C17.2894996,139.250501 18.3353066,138.242933 18.3353066,137 C18.3353066,135.758068 17.2894996,134.748498 16,134.748498 M16,128 C8.26892178,128 2,137 2,137 C2,137 8.26892178,146 16,146 C23.729105,146 30,137 30,137 C30,137 23.729105,128 16,128 M16,142.627754 C12.779704,142.627754 10.16716,140.105831 10.16716,137 C10.16716,133.894169 12.779704,131.373247 16,131.373247 C19.2222692,131.373247 21.83284,133.894169 21.83284,137 C21.83284,140.105831 19.2222692,142.627754 16,142.627754" id="sight--lp-blue" fill="#206FAC" sketch:type="MSShapeGroup"></path>
        <path d="M16,94.7484977 C14.7085271,94.7484977 13.6686399,95.7580681 13.6686399,97 C13.6686399,98.2429335 14.7085271,99.2505008 16,99.2505008 C17.2894996,99.2505008 18.3353066,98.2429335 18.3353066,97 C18.3353066,95.7580681 17.2894996,94.7484977 16,94.7484977 M16,88 C8.26892178,88 2,97 2,97 C2,97 8.26892178,106 16,106 C23.729105,106 30,97 30,97 C30,97 23.729105,88 16,88 M16,102.627754 C12.779704,102.627754 10.16716,100.105831 10.16716,97 C10.16716,93.8941687 12.779704,91.3732473 16,91.3732473 C19.2222692,91.3732473 21.83284,93.8941687 21.83284,97 C21.83284,100.105831 19.2222692,102.627754 16,102.627754" id="sight--white" fill="#FFFFFF" sketch:type="MSShapeGroup"></path>
        <path d="M16,54.7484977 C14.7085271,54.7484977 13.6686399,55.7580681 13.6686399,57 C13.6686399,58.2429335 14.7085271,59.2505008 16,59.2505008 C17.2894996,59.2505008 18.3353066,58.2429335 18.3353066,57 C18.3353066,55.7580681 17.2894996,54.7484977 16,54.7484977 M16,48 C8.26892178,48 2,57 2,57 C2,57 8.26892178,66 16,66 C23.729105,66 30,57 30,57 C30,57 23.729105,48 16,48 M16,62.6277543 C12.779704,62.6277543 10.16716,60.1058313 10.16716,57 C10.16716,53.8941687 12.779704,51.3732473 16,51.3732473 C19.2222692,51.3732473 21.83284,53.8941687 21.83284,57 C21.83284,60.1058313 19.2222692,62.6277543 16,62.6277543" id="sight--body-grey" fill="#67747C" sketch:type="MSShapeGroup"></path>
        <path d="M16,14.7484977 C14.7085271,14.7484977 13.6686399,15.7580681 13.6686399,17 C13.6686399,18.2429335 14.7085271,19.2505008 16,19.2505008 C17.2894996,19.2505008 18.3353066,18.2429335 18.3353066,17 C18.3353066,15.7580681 17.2894996,14.7484977 16,14.7484977 M16,8 C8.26892178,8 2,17 2,17 C2,17 8.26892178,26 16,26 C23.729105,26 30,17 30,17 C30,17 23.729105,8 16,8 M16,22.6277543 C12.779704,22.6277543 10.16716,20.1058313 10.16716,17 C10.16716,13.8941687 12.779704,11.3732473 16,11.3732473 C19.2222692,11.3732473 21.83284,13.8941687 21.83284,17 C21.83284,20.1058313 19.2222692,22.6277543 16,22.6277543" id="sight--title-grey" fill="#3B444F" sketch:type="MSShapeGroup"></path>
    </g>
</svg>

<svg width="32" height="232" viewBox="0 0 32 232" xmlns="http://www.w3.org/2000/svg" xmlns:sketch="http://www.bohemiancoding.com/sketch/ns"><title>sight</title><g sketch:type="MSPage" fill="none"><path d="M16 174.748c-1.291 0-2.331 1.01-2.331 2.252 0 1.243 1.04 2.251 2.331 2.251 1.289 0 2.335-1.008 2.335-2.251 0-1.242-1.046-2.252-2.335-2.252m0-6.748c-7.731 0-14 9-14 9s6.269 9 14 9c7.729 0 14-9 14-9s-6.271-9-14-9m0 14.628c-3.22 0-5.833-2.522-5.833-5.628 0-3.106 2.613-5.627 5.833-5.627 3.222 0 5.833 2.521 5.833 5.627s-2.611 5.628-5.833 5.628" fill="#FA5E5B" sketch:type="MSShapeGroup"/><path d="M16 134.748c-1.291 0-2.331 1.01-2.331 2.252 0 1.243 1.04 2.251 2.331 2.251 1.289 0 2.335-1.008 2.335-2.251 0-1.242-1.046-2.252-2.335-2.252m0-6.748c-7.731 0-14 9-14 9s6.269 9 14 9c7.729 0 14-9 14-9s-6.271-9-14-9m0 14.628c-3.22 0-5.833-2.522-5.833-5.628 0-3.106 2.613-5.627 5.833-5.627 3.222 0 5.833 2.521 5.833 5.627s-2.611 5.628-5.833 5.628" fill="#206FAC" sketch:type="MSShapeGroup"/><path d="M16 94.748c-1.291 0-2.331 1.01-2.331 2.252 0 1.243 1.04 2.251 2.331 2.251 1.289 0 2.335-1.008 2.335-2.251 0-1.242-1.046-2.252-2.335-2.252m0-6.748c-7.731 0-14 9-14 9s6.269 9 14 9c7.729 0 14-9 14-9s-6.271-9-14-9m0 14.628c-3.22 0-5.833-2.522-5.833-5.628 0-3.106 2.613-5.627 5.833-5.627 3.222 0 5.833 2.521 5.833 5.627s-2.611 5.628-5.833 5.628" fill="#fff" sketch:type="MSShapeGroup"/><path d="M16 54.748c-1.291 0-2.331 1.01-2.331 2.252 0 1.243 1.04 2.251 2.331 2.251 1.289 0 2.335-1.008 2.335-2.251 0-1.242-1.046-2.252-2.335-2.252m0-6.748c-7.731 0-14 9-14 9s6.269 9 14 9c7.729 0 14-9 14-9s-6.271-9-14-9m0 14.628c-3.22 0-5.833-2.522-5.833-5.628 0-3.106 2.613-5.627 5.833-5.627 3.222 0 5.833 2.521 5.833 5.627s-2.611 5.628-5.833 5.628" fill="#67747C" sketch:type="MSShapeGroup"/><path d="M16 14.748c-1.291 0-2.331 1.01-2.331 2.252 0 1.243 1.04 2.251 2.331 2.251 1.289 0 2.335-1.008 2.335-2.251 0-1.242-1.046-2.252-2.335-2.252m0-6.748c-7.731 0-14 9-14 9s6.269 9 14 9c7.729 0 14-9 14-9s-6.271-9-14-9m0 14.628c-3.22 0-5.833-2.522-5.833-5.628 0-3.106 2.613-5.627 5.833-5.627 3.222 0 5.833 2.521 5.833 5.627s-2.611 5.628-5.833 5.628" fill="#3B444F" sketch:type="MSShapeGroup"/></g></svg>
